X: 16
T: Machynlleth
%%titlespace -10
%%musicspace -10
%%scale 0.6
M: 4/4
L: 1/4
K: Gmaj
|:B/c/|"G" d/e/d/c/ B/c/B/A/|GG GA/B/|"D" cA AA/B/|cA AB/c/|
"G" d/e/d/c/ B/c/B/A/|"Em" GG GA/B/|"C" cA "D" GF|"G" G3:|
|:z|"D" F/A/c/A/ F/A/c/A/|"G" G/B/d/B/ G/B/d/B/|"D" F/A/c/A/ F/A/c/A/|F/A/c/A/ "G" G/B/d/g/|
"C" ee eg|"G" dd dg|"D" dc BA|"G" G3:|
|:B/c/|"G"d>e dc|B>A Bc|dg "C" fe|"D" ed dB/c/|
"G"d>e dc|"Em" B>A Bc|"C" cA "D" GF|"G" G3:|
|:z|"D"A>B cA|"G" B/c/d/e/ d2|"D"A>B cA|"G" B/c/d/e/ d2|
"C" e>e eg|"G" d>d dg|"D" dcBA|"G" G3:|
%%newpage
